app/component-library/components/Icons/Icon/assets/snaps-mobile.svg

<svg width="24" height="24" viewBox="0 0 24 24" fill="none" xmlns="http://www.w3.org/2000/svg">
<path d="M16.4783 2H8.09415C4.45233 2 2.28125 4.18 2.28125 7.82V16.19C2.28125 19.83 4.45233 22 8.09415 22H16.4683C20.1101 22 22.2812 19.83 22.2812 16.19V7.82C22.2912 4.18 20.1201 2 16.4783 2ZM11.856 16.79C11.856 17.09 11.7059 17.36 11.4458 17.52C11.3057 17.61 11.1557 17.65 10.9956 17.65C10.8655 17.65 10.7355 17.62 10.6054 17.56L7.10365 15.81C6.6034 15.55 6.28324 15.04 6.28324 14.47V11.16C6.28324 10.86 6.43332 10.59 6.69345 10.43C6.95358 10.27 7.26373 10.26 7.53387 10.39L11.0356 12.14C11.5459 12.4 11.866 12.91 11.866 13.48V16.79H11.856ZM11.6459 11.44L7.88404 9.41C7.61391 9.26 7.44382 8.97 7.44382 8.64C7.44382 8.32 7.61391 8.02 7.88404 7.87L11.6459 5.84C12.0461 5.63 12.5164 5.63 12.9165 5.84L16.6784 7.87C16.9486 8.02 17.1186 8.31 17.1186 8.64C17.1186 8.97 16.9486 9.26 16.6784 9.41L12.9165 11.44C12.7164 11.55 12.4963 11.6 12.2762 11.6C12.0561 11.6 11.846 11.55 11.6459 11.44ZM18.2892 14.47C18.2892 15.04 17.9691 15.56 17.4588 15.81L13.9571 17.56C13.837 17.62 13.7069 17.65 13.5669 17.65C13.4068 17.65 13.2567 17.61 13.1166 17.52C12.8565 17.36 12.7064 17.09 12.7064 16.79V13.48C12.7064 12.91 13.0266 12.39 13.5369 12.14L17.0386 10.39C17.3087 10.26 17.6189 10.27 17.879 10.43C18.1392 10.59 18.2892 10.86 18.2892 11.16V14.47Z" fill="currentColor"/>
</svg>

<svg xmlns="http://www.w3.org/2000/svg" width="24" height="24" viewBox="0 0 24 24" fill="none"><path fill="currentColor" d="M16.478 2H8.094C4.452 2 2.281 4.18 2.281 7.82v8.37c0 3.64 2.171 5.81 5.813 5.81h8.374c3.642 0 5.813-2.17 5.813-5.81V7.82c.01-3.64-2.16-5.82-5.803-5.82Zm-4.622 14.79c0 .3-.15.57-.41.73-.14.09-.29.13-.45.13-.13 0-.26-.03-.39-.09l-3.502-1.75c-.5-.26-.82-.77-.82-1.34v-3.31a.868.868 0 0 1 1.25-.77l3.502 1.75c.51.26.83.77.83 1.34v3.31h-.01Zm-.21-5.35L7.884 9.41a.87.87 0 0 1-.44-.77c0-.32.17-.62.44-.77l3.762-2.03c.4-.21.87-.21 1.27 0l3.762 2.03c.27.15.44.44.44.77s-.17.62-.44.77l-3.762 2.03c-.2.11-.42.16-.64.16-.22 0-.43-.05-.63-.16Zm6.643 3.03c0 .57-.32 1.09-.83 1.34l-3.502 1.75c-.12.06-.25.09-.39.09-.16 0-.31-.04-.45-.13a.847.847 0 0 1-.41-.73v-3.31c0-.57.32-1.09.83-1.34l3.502-1.75a.868.868 0 0 1 1.25.77v3.31Z"/></svg>
